**kern	**kern	**dynam
*part1	*part1	*part1
*staff2	*staff1	*
*I"Piano	*	*
*clefF4	*clefG2	*
*k[b-e-a-]	*k[b-e-a-]	*
=1	=1	=1
4r	4.f)	<
8r	.	.
(8En	(8en	.
[4F)	[4f^)	[
=	=	=
2F]	2f]	.
([4E-X	([4e-X	.
=	=	=
4E-]	4e-]	.
4D-X	4d-X	.
4C-X	4c-X	.
=	=	=
2.BB-)	[2.B-)	>
=	=	=
(4BBB- 4BB-	2.B-]	.
4AAA- 4AA-	.	.
4GGG-X 4GG-X	.	.
=	=	=
!	!	!LO:DY:a
2.FFF) 2.FF	2.r	] pp
=	=	=
!	!LO:TX:a:t=sans Ped.	!
8BBB- 8BB-	2.r	.
8r	.	.
8BBB- 8BB-	.	.
8r	.	.
8BBB- 8BB-	.	.
8r	.	.
=	=	=
*-	*-	*-
!!!system-decoration: {(s1,s2)}
